docs/icons/earth_engine.svg

<svg width="45" height="45" viewBox="6 9 49 44" xmlns="http://www.w3.org/2000/svg">
    <path
        d="M14.968 26.6548L10.3617 26.9473C9.21988 27.0188 8.33154 27.9656 8.33154 29.1096V34.7365C8.33154 35.8523 9.17871 36.7861 10.2902 36.8923L14.9659 37.3451V26.6548H14.968Z"
        fill="#AECBFA" />
    <path
        d="M45.0327 37.3451L49.639 37.0526C50.7809 36.9811 51.6692 36.0343 51.6692 34.8903V29.2635C51.6692 28.1476 50.8221 27.2138 49.7106 27.1076L45.0349 26.6548V37.3451H45.0327Z"
        fill="#669DF6" />
    <path
        d="M26.8544 16.3589L24.2349 12.5585C23.5849 11.6182 22.3174 11.343 21.3359 11.9302L16.5085 14.8249C15.5509 15.399 15.1869 16.6059 15.6657 17.6134L17.6829 21.8557L26.8522 16.3567L26.8544 16.3589Z"
        fill="#AECBFA" />
    <path
        d="M33.1465 47.6411L35.766 51.4415C36.416 52.3818 37.6835 52.657 38.665 52.0698L43.4923 49.1751C44.45 48.601 44.814 47.3941 44.3352 46.3866L42.318 42.1443L33.1487 47.6433L33.1465 47.6411Z"
        fill="#669DF6" />
    <path
        d="M33.1465 16.3589L35.766 12.5585C36.416 11.6182 37.6835 11.343 38.665 11.9302L43.4923 14.8249C44.45 15.399 44.814 16.6059 44.3352 17.6134L42.318 21.8557L33.1487 16.3567L33.1465 16.3589Z"
        fill="#669DF6" />
    <path
        d="M26.8544 47.6411L24.2349 51.4415C23.5849 52.3818 22.3174 52.657 21.3359 52.0698L16.5085 49.1751C15.5509 48.601 15.1869 47.3941 15.6657 46.3866L17.6829 42.1443L26.8522 47.6433L26.8544 47.6411Z"
        fill="#AECBFA" />
    <path
        d="M30.0048 44.9654C22.8374 44.9654 17.0091 39.1349 17.0091 31.9675C17.0091 24.8002 22.8396 18.9719 30.0048 18.9719V14.6385C20.4476 14.6385 12.6758 22.4125 12.6758 31.9675C12.6758 41.5225 20.4498 49.2965 30.0048 49.2987V44.9654V44.9654Z"
        fill="#AECBFA" />
    <path
        d="M30.0049 14.6385V18.9719C37.17 18.9719 43.0006 24.8024 43.0006 31.9675C43.0006 39.1327 37.17 44.9654 30.0049 44.9654V49.2987C39.5599 49.2987 47.3339 41.5247 47.3339 31.9675C47.3339 22.4104 39.5599 14.6385 30.0049 14.6385V14.6385Z"
        fill="#669DF6" />
    <path
        d="M40.4201 35.0182L40.327 35.0919C38.0433 36.862 34.3036 36.68 32.1131 34.5914C30.5076 33.0617 29.5846 31.1485 28.2608 29.751C25.1105 26.423 21.3686 26.1175 19.9126 28.802C18.344 31.6945 19.7393 35.3735 19.7393 35.3735C19.7393 35.3735 20.281 32.6089 22.5148 33.0119C24.7486 33.4149 25.6803 35.1915 27.0345 36.5934C28.3886 37.9952 30.4621 40.32 34.2213 40.32C37.9805 40.32 39.6705 37.5835 40.4201 35.016V35.0182Z"
        fill="#4285F4" />
    <path
        d="M23.5503 23.3485C23.5503 23.3485 25.5913 21.1666 29.8315 21.1666C32.8171 21.1666 35.8201 25.2378 36.8536 26.6071C37.8871 27.9765 38.665 29.1681 40.4113 28.8648C40.4113 28.8648 40.8446 30.2146 40.8641 31.636C40.8641 31.636 38.3118 33.7983 35.6555 31.2698C32.9991 28.7413 29.8726 20.5036 23.5503 23.3506V23.3485Z"
        fill="#4285F4" />
</svg>

<svg xmlns="http://www.w3.org/2000/svg" viewBox="6 9 49 44">
    <path fill="#AECBFA"
        d="m14.968 26.655-4.606.292a2.166 2.166 0 0 0-2.03 2.163v5.627c0 1.115.847 2.05 1.958 2.155l4.676.453v-10.69z" />
    <path fill="#669DF6"
        d="m45.033 37.345 4.606-.292a2.166 2.166 0 0 0 2.03-2.163v-5.626c0-1.116-.847-2.05-1.958-2.156l-4.676-.453v10.69z" />
    <path fill="#AECBFA"
        d="m26.854 16.359-2.62-3.8a2.17 2.17 0 0 0-2.898-.629l-4.827 2.895a2.167 2.167 0 0 0-.843 2.788l2.017 4.243 9.17-5.5z" />
    <path fill="#669DF6"
        d="m33.147 47.641 2.619 3.8a2.17 2.17 0 0 0 2.899.629l4.827-2.895a2.167 2.167 0 0 0 .843-2.788l-2.017-4.243-9.17 5.5zm0-31.282 2.619-3.8a2.17 2.17 0 0 1 2.899-.629l4.827 2.895a2.167 2.167 0 0 1 .843 2.788l-2.017 4.243-9.17-5.5z" />
    <path fill="#AECBFA"
        d="m26.854 47.641-2.62 3.8a2.17 2.17 0 0 1-2.898.629l-4.827-2.895a2.167 2.167 0 0 1-.843-2.788l2.017-4.243 9.17 5.5z" />
    <path fill="#AECBFA"
        d="M30.005 44.965c-7.168 0-12.996-5.83-12.996-12.998s5.83-12.995 12.996-12.995v-4.334c-9.557 0-17.33 7.775-17.33 17.33s7.775 17.329 17.33 17.33z" />
    <path fill="#669DF6"
        d="M30.005 14.639v4.333C37.17 18.972 43 24.802 43 31.968c0 7.165-5.831 12.997-12.996 12.997V49.3c9.555 0 17.329-7.774 17.329-17.331 0-9.558-7.774-17.33-17.33-17.33" />
    <path fill="#4285F4"
        d="m40.42 35.018-.093.074c-2.284 1.77-6.023 1.588-8.214-.5-1.605-1.53-2.528-3.443-3.852-4.841-3.15-3.328-6.892-3.634-8.348-.949-1.569 2.893-.174 6.572-.174 6.572s.542-2.765 2.776-2.362 3.165 2.18 4.52 3.581c1.354 1.402 3.427 3.727 7.186 3.727s5.45-2.736 6.2-5.304zM23.55 23.349s2.041-2.182 6.281-2.182c2.986 0 5.99 4.07 7.023 5.44s1.811 2.561 3.557 2.258c0 0 .434 1.35.453 2.771 0 0-2.552 2.162-5.208-.366s-5.783-10.766-12.106-7.92z" />
</svg>
